X:1
T:The World for God
T:The World for God
T:Evangeline Booth
T:Evangeline Booth (1865-1950)
T:Public Domain Courtesy of the Cyber Hymnal™
T:Public Domain Courtesy of the Cyber Hymnal™
T:Public Domain Courtesy of the Cyber Hymnal™
C:Evangeline Booth
Z:Public Domain
Z:Courtesy of the Cyber Hymnal™
%%score ( 1 2 ) ( 3 4 )
L:1/8
Q:1/4=105
M:4/4
K:Ab
V:1 treble 
V:2 treble 
V:3 bass 
V:4 bass 
V:1
 ccc | c4- c[FAc][=EGc][Fc] | [=Ec]6 z [_Ec] | [Ee]3 [Gd] [Ac][AB][Ad][Ac] | %4
w: 1.~The world for|God! * The world for|God! There’s|no- thing else will meet the|
w: 2.~The world for|God! * The world for|God! I|call to arms the sol- diers|
w: 3.~The world for|God! * The world for|God! For|this, dear Lord, give to my|
 B[EA][EG][=DF] !fermata!E3 E | [B,E]>[B,E] [DE][CE] [B,E] [B,E]2 [CE] | %6
w: hun- ger of my soul. I|see for- sak- en child- ren, I|
w: of the blood and fire: Go|with the Ho- ly Bi- ble. Its|
w: soul con- sum- ing fire. Give|fire that makes men he- roes, turns|
 [DF]>[DF] [DF][DF] [CE]3 [CE] | [DG]>[DG] [DG][DG] [DG] [DG]2 [DG] | %8
w: see the tears that fall From|wo- men’s eyes once mer- ry, now|
w: words are peace and life To|mul- ti- tudes who strug- gle with|
w: weak- ness in- to might, The|fire that gives the cour- age to|
 [CA][CA][=DB][DB] [EB]3 [EB] | [Cc]>[Cc] [=Dc][=Ec] [Fc] [Fc]2 [Fc] | [Ee]4- [Ee][Gd][Gc][GB] | %11
w: nev- er laugh at all; I|see the sins and sor- rows of|those * who sit in|
w: crime and want and strife. Go|with your songs of mer- cy, show|Christ * in lov- ing|
w: suf- fer for the fight, The|fire that chang- es fear- ing to|Pen- * te- cost- al|
 (cB) [FA]4 z [FA] | [GB]>[GB] [GB][GB] ([Ac][Ac])[Ac][Ac] | %13
w: dark- * ness; I|see in lands far dis- * tant, the|
w: kind- * ness, Make|known the suf- ferings of~the * cross, the|
w: dar- * ing, The|fire that makes me will- * ing for|
 [A=d]>[Ad] [Ad][Ad] !fermata![Ge]2 A[AB] |[M:3/4] (c f3) [Ge][Gd] | [Ac]4 [Ad][Ac] | %16
w: hun- gry and op- pressed. But be-|hold! * On a|hill, Cal- va-|
w: sac- ri- fice of God. For be-|hold! * On a|hill, Cal- va-|
w: Christ to live or die; For be-|hold! * On a|hill, Cal- va-|
 [AB]4 [Gc][GB] |[M:4/4] [EA]4- [EA] ||"^Refrain" [ce][df][ce] | [Bd]4- [Bd][Bd][ce][Bd] x3 | %20
w: ry! Cal- va-|ry! *|||
w: ry! Cal- va-|ry! *|The world for|God! * The world for|
w: ry! Cal- va-|ry! *|||
 c4- ccdc x3 | B4- BBcB x3 | [EA]4- [EA][ce][df][ce] x3 | [Bd]4- [Bd][Bd][ce][Bd] | %24
w: ||||
w: God! * I give my|heart! * I’ll do my|part! * The world for|God! * The world for|
w: ||||
 [Ac]4- [Ac][Ac][Gd][_Ge] x3 | !fermata!f2 [=Ae][Bd] !fermata![_Ac]2 !fermata![GB]2 | %26
w: ||
w: God! * I give my|heart! I’ll do my part!|
w: ||
 [EA]4- !fermata![EA] |] %27
w: |
w: |
w: |
V:2
 ccc | c4- c x3 | x8 | x8 | x4 E3 E | x8 | x8 | x8 | x8 | x8 | x8 | G2 x6 | x8 | x8 | %14
[M:3/4] A4 x2 | x6 | x6 |[M:4/4] x5 || x3 | x11 | A8 x3 | G8 x3 | x11 | x8 | x11 | F A x6 | x5 |] %27
V:3
 CCC | C4- C[C,C][C,B,][C,A,] | [C,G,]6 z A, | [G,B,]3 [E,E] EDFE | %4
 [G,E][A,C]B,[B,,A,] !fermata![E,G,]3 E, | [E,G,]2 [E,B,][E,A,] [E,G,] [E,G,]2 [A,,_G,] | %6
 [D,F,]2 [D,A,]2 [A,,A,]3 A, | [E,B,]2 [E,B,]2 [=E,B,] [E,B,]3 | [F,A,]2 [B,,A,]2 [E,G,]3 [E,G,] | %9
 [=E,G,]2 [F,C][G,C] [A,C] [A,C]2 [A,C] | [G,B,]4- [G,B,][E,F][E,E][E,D] | %11
 [E,E][=E,D] [F,C]4 z [F,C] | [E,D]2 [E,D]2 ([A,C] [A,E]2) [F,F] | %13
 [B,F]2 [=B,F]2 !fermata![CE]2 [A,C][A,D] |[M:3/4] ([A,E] [D,D]3) [E,B,][=E,B,] | %15
 [F,A,]4 [F,D][E,E] | [D,F]4 [E,E][E,D] |[M:4/4] [A,C]4- [A,C] || z z2 | z x10 | (z E)EF E x6 | %21
 z DDE D x6 | (z A,2) x8 | (z [E,E]4) x3 | z [A,B,][A,C] x8 | %25
 (!fermata![D,D]2 [C,E])[D,F] !fermata![E,E]2 !fermata![D,D]2 | [A,,A,C]4- !fermata![A,,A,C] |] %27
V:4
 CCC | C4- C x3 | x7 A, | x4 F,2 F,2 | x7 E, | x8 | x7 A, | x8 | x8 | x8 | x8 | x8 | x8 | x8 | %14
[M:3/4] x6 | x6 | x6 |[M:4/4] x5 || x3 | E4 E,G,B, E4 | E4- (A,,C,E, A,4) | (D4- E,)G,B, E,4 | %22
 (C6 A,,C,E, A,2) | E4 E,G,B, x | (E6 A,,C,E, A,2) | x8 | x5 |] %27

